public/app_store.svg

<svg width="160" height="47" viewBox="0 0 160 47" fill="none" xmlns="http://www.w3.org/2000/svg">
<path d="M159.111 40.8915C159.111 43.3548 157.074 45.3501 154.555 45.3501H5.45108C2.93292 45.3501 0.888916 43.3548 0.888916 40.8915V5.3364C0.888916 2.87432 2.93292 0.87207 5.45108 0.87207H154.554C157.074 0.87207 159.11 2.87432 159.11 5.3364L159.111 40.8915Z" fill="black"/>
<path d="M35.7074 22.8615C35.673 19.1371 38.8351 17.3252 38.9797 17.2409C37.1889 14.6952 34.4131 14.3474 33.4377 14.3196C31.1065 14.0804 28.8452 15.6797 27.6576 15.6797C26.4463 15.6797 24.6176 14.3427 22.6466 14.382C20.1103 14.4202 17.7376 15.8519 16.4363 18.0752C13.7506 22.6084 15.7536 29.2702 18.3266 32.9345C19.6137 34.7291 21.1177 36.7328 23.0863 36.6623C25.0123 36.5849 25.7317 35.4651 28.0558 35.4651C30.3586 35.4651 31.0342 36.6623 33.0419 36.6172C35.1089 36.5849 36.4102 34.8146 37.6523 33.0038C39.1397 30.9469 39.737 28.9212 39.7607 28.8172C39.7121 28.8011 35.7465 27.3254 35.7074 22.8615Z" fill="white"/>
<path d="M31.9148 11.9091C32.9506 10.6461 33.6594 8.92782 33.4626 7.18408C31.9634 7.24879 30.0884 8.19519 29.0087 9.43048C28.0534 10.519 27.2001 12.3032 27.4206 13.9811C29.1047 14.1035 30.8339 13.1525 31.9148 11.9091Z" fill="white"/>
<path d="M58.1334 11.5657C58.1334 12.9258 57.715 13.9496 56.8794 14.6371C56.1055 15.2715 55.0056 15.5893 53.5811 15.5893C52.8747 15.5893 52.2702 15.5593 51.7642 15.4992V8.0678C52.4243 7.9638 53.1354 7.91064 53.9034 7.91064C55.2605 7.91064 56.2833 8.19838 56.9731 8.77384C57.7458 9.42442 58.1334 10.3546 58.1334 11.5657ZM56.8237 11.5992C56.8237 10.7175 56.5843 10.0415 56.1055 9.57002C55.6267 9.09971 54.9274 8.86398 54.0065 8.86398C53.6154 8.86398 53.2824 8.8894 53.0062 8.94256V14.5921C53.1591 14.6152 53.4388 14.6256 53.8453 14.6256C54.7959 14.6256 55.5295 14.3679 56.0462 13.8525C56.563 13.3371 56.8237 12.586 56.8237 11.5992Z" fill="white"/>
<path d="M65.0775 12.7539C65.0775 13.5916 64.8321 14.278 64.3415 14.8165C63.8271 15.37 63.1456 15.6462 62.2947 15.6462C61.4745 15.6462 60.8215 15.3816 60.3344 14.85C59.8484 14.3196 59.6055 13.6506 59.6055 12.844C59.6055 12.0004 59.8555 11.3083 60.3581 10.7709C60.8606 10.2336 61.5361 9.96436 62.3871 9.96436C63.2072 9.96436 63.8662 10.229 64.3652 10.7594C64.8392 11.2748 65.0775 11.9404 65.0775 12.7539ZM63.7892 12.7932C63.7892 12.2905 63.6778 11.8595 63.4561 11.5001C63.1954 11.0656 62.8244 10.8484 62.3421 10.8484C61.8431 10.8484 61.4638 11.0656 61.2031 11.5001C60.9803 11.8595 60.8701 12.2974 60.8701 12.8151C60.8701 13.3178 60.9815 13.7488 61.2031 14.1082C61.4721 14.5427 61.8467 14.7599 62.3302 14.7599C62.8043 14.7599 63.1764 14.5392 63.4443 14.0966C63.6742 13.7303 63.7892 13.2958 63.7892 12.7932Z" fill="white"/>
<path d="M74.3883 10.0752L72.6401 15.5225H71.5023L70.7782 13.1571C70.5945 12.5666 70.4452 11.9796 70.329 11.3972H70.3065C70.1986 11.9957 70.0493 12.5816 69.8573 13.1571L69.0881 15.5225H67.9373L66.2935 10.0752H67.5699L68.2016 12.6648C68.3545 13.2772 68.4801 13.8608 68.5809 14.4132H68.6034C68.6958 13.9579 68.8487 13.3778 69.0644 12.6764L69.8573 10.0764H70.8695L71.6292 12.6209C71.8129 13.2414 71.9622 13.8388 72.0772 14.4143H72.1115C72.1957 13.8539 72.3225 13.2564 72.4908 12.6209L73.1687 10.0764H74.3883V10.0752Z" fill="white"/>
<path d="M80.8273 15.5226H79.5853V12.4026C79.5853 11.4412 79.2108 10.9605 78.4593 10.9605C78.0908 10.9605 77.7933 11.0922 77.5622 11.3568C77.3334 11.6215 77.2173 11.9335 77.2173 12.2905V15.5215H75.9752V11.6319C75.9752 11.1535 75.9598 10.6346 75.9302 10.073H77.0217L77.0798 10.9247H77.1142C77.2588 10.66 77.4745 10.4416 77.7577 10.2672C78.0943 10.0638 78.4712 9.96094 78.8836 9.96094C79.4051 9.96094 79.8389 10.125 80.1838 10.4544C80.6128 10.8576 80.8273 11.4597 80.8273 12.2593V15.5226V15.5226Z" fill="white"/>
<path d="M84.2524 15.5224H83.0115V7.57568H84.2524V15.5224Z" fill="white"/>
<path d="M91.565 12.7539C91.565 13.5916 91.3197 14.278 90.829 14.8165C90.3146 15.37 89.632 15.6462 88.7822 15.6462C87.9609 15.6462 87.3078 15.3816 86.8219 14.85C86.336 14.3196 86.093 13.6506 86.093 12.844C86.093 12.0004 86.3431 11.3083 86.8456 10.7709C87.3481 10.2336 88.0237 9.96436 88.8735 9.96436C89.6948 9.96436 90.3526 10.229 90.8527 10.7594C91.3268 11.2748 91.565 11.9404 91.565 12.7539ZM90.2755 12.7932C90.2755 12.2905 90.1641 11.8595 89.9425 11.5001C89.6829 11.0656 89.3108 10.8484 88.8296 10.8484C88.3295 10.8484 87.9502 11.0656 87.6906 11.5001C87.4678 11.8595 87.3576 12.2974 87.3576 12.8151C87.3576 13.3178 87.469 13.7488 87.6906 14.1082C87.9597 14.5427 88.3342 14.7599 88.8178 14.7599C89.2918 14.7599 89.6628 14.5392 89.9306 14.0966C90.1618 13.7303 90.2755 13.2958 90.2755 12.7932Z" fill="white"/>
<path d="M97.5764 15.5226H96.4611L96.3687 14.8951H96.3343C95.9527 15.3955 95.4087 15.6462 94.7023 15.6462C94.1749 15.6462 93.7483 15.481 93.4271 15.1528C93.1355 14.8547 92.9897 14.4837 92.9897 14.0435C92.9897 13.3779 93.2742 12.8706 93.8466 12.5193C94.4179 12.168 95.2215 11.9958 96.2561 12.0039V11.9022C96.2561 11.1846 95.8697 10.8264 95.0958 10.8264C94.5447 10.8264 94.0588 10.9616 93.6392 11.2297L93.3868 10.4347C93.9059 10.1215 94.5471 9.96436 95.3032 9.96436C96.7634 9.96436 97.4958 10.7155 97.4958 12.2177V14.2237C97.4958 14.768 97.5231 15.2013 97.5764 15.5226ZM96.2869 13.6506V12.8105C94.9169 12.7874 94.2318 13.1537 94.2318 13.9083C94.2318 14.1925 94.31 14.4052 94.47 14.5473C94.63 14.6894 94.8339 14.7599 95.0769 14.7599C95.3494 14.7599 95.6043 14.6756 95.8366 14.508C96.07 14.3393 96.2134 14.1255 96.2668 13.8632C96.2798 13.8043 96.2869 13.7326 96.2869 13.6506Z" fill="white"/>
<path d="M104.634 15.5224H103.532L103.474 14.6477H103.439C103.087 15.3133 102.488 15.6461 101.645 15.6461C100.972 15.6461 100.411 15.3884 99.9669 14.873C99.5224 14.3576 99.3008 13.6886 99.3008 12.867C99.3008 11.9853 99.5414 11.2711 100.025 10.7257C100.493 10.2173 101.067 9.96306 101.749 9.96306C102.5 9.96306 103.025 10.2092 103.323 10.7026H103.347V7.57568H104.59V14.0549C104.59 14.5853 104.604 15.0741 104.634 15.5224ZM103.347 13.2252V12.3169C103.347 12.1598 103.335 12.0327 103.313 11.9356C103.243 11.6444 103.092 11.3994 102.863 11.2018C102.632 11.0042 102.354 10.9048 102.033 10.9048C101.569 10.9048 101.207 11.0839 100.94 11.4433C100.676 11.8027 100.542 12.2615 100.542 12.8219C100.542 13.3604 100.668 13.7972 100.923 14.1335C101.192 14.4917 101.555 14.6708 102.009 14.6708C102.417 14.6708 102.743 14.5217 102.99 14.2224C103.23 13.9463 103.347 13.6135 103.347 13.2252Z" fill="white"/>
<path d="M115.257 12.7539C115.257 13.5916 115.012 14.278 114.521 14.8165C114.007 15.37 113.326 15.6462 112.474 15.6462C111.655 15.6462 111.002 15.3816 110.514 14.85C110.028 14.3196 109.785 13.6506 109.785 12.844C109.785 12.0004 110.035 11.3083 110.538 10.7709C111.04 10.2336 111.716 9.96436 112.568 9.96436C113.387 9.96436 114.047 10.229 114.545 10.7594C115.019 11.2748 115.257 11.9404 115.257 12.7539ZM113.97 12.7932C113.97 12.2905 113.858 11.8595 113.637 11.5001C113.375 11.0656 113.005 10.8484 112.522 10.8484C112.024 10.8484 111.644 11.0656 111.383 11.5001C111.16 11.8595 111.05 12.2974 111.05 12.8151C111.05 13.3178 111.161 13.7488 111.383 14.1082C111.652 14.5427 112.026 14.7599 112.51 14.7599C112.984 14.7599 113.357 14.5392 113.625 14.0966C113.854 13.7303 113.97 13.2958 113.97 12.7932Z" fill="white"/>
<path d="M121.936 15.5226H120.695V12.4026C120.695 11.4412 120.32 10.9605 119.568 10.9605C119.199 10.9605 118.901 11.0922 118.672 11.3568C118.442 11.6215 118.327 11.9335 118.327 12.2905V15.5215H117.083V11.6319C117.083 11.1535 117.069 10.6346 117.04 10.073H118.13L118.188 10.9247H118.222C118.368 10.66 118.584 10.4416 118.866 10.2672C119.204 10.0638 119.579 9.96094 119.993 9.96094C120.513 9.96094 120.947 10.125 121.292 10.4544C121.722 10.8576 121.936 11.4597 121.936 12.2593V15.5226V15.5226Z" fill="white"/>
<path d="M130.295 10.9825H128.927V13.6287C128.927 14.3012 129.17 14.6375 129.651 14.6375C129.874 14.6375 130.059 14.619 130.204 14.5809L130.236 15.4995C129.991 15.5897 129.669 15.6347 129.272 15.6347C128.781 15.6347 128.399 15.4892 128.123 15.198C127.846 14.9068 127.708 14.4168 127.708 13.7292V10.9825H126.892V10.0754H127.708V9.07697L128.926 8.71875V10.0742H130.293V10.9825H130.295Z" fill="white"/>
<path d="M136.87 15.5224H135.627V12.4256C135.627 11.4491 135.252 10.9603 134.502 10.9603C133.926 10.9603 133.532 11.2434 133.317 11.8096C133.28 11.9287 133.259 12.0743 133.259 12.2453V15.5213H132.018V7.57568H133.259V10.8586H133.282C133.674 10.2612 134.234 9.96306 134.961 9.96306C135.475 9.96306 135.901 10.1271 136.238 10.4565C136.659 10.8667 136.87 11.4768 136.87 12.2834V15.5224V15.5224Z" fill="white"/>
<path d="M143.653 12.5409C143.653 12.7581 143.636 12.9407 143.606 13.0898H139.881C139.898 13.6283 140.076 14.0385 140.421 14.3228C140.736 14.577 141.142 14.7041 141.64 14.7041C142.191 14.7041 142.694 14.6186 143.147 14.4464L143.341 15.2877C142.811 15.5118 142.188 15.6239 141.466 15.6239C140.601 15.6239 139.919 15.3755 139.426 14.8786C138.931 14.3817 138.686 13.7149 138.686 12.8783C138.686 12.0567 138.914 11.3726 139.375 10.8272C139.857 10.2448 140.507 9.95361 141.329 9.95361C142.132 9.95361 142.742 10.2448 143.155 10.8272C143.488 11.2894 143.653 11.8614 143.653 12.5409ZM142.467 12.2277C142.477 11.8684 142.395 11.5587 142.227 11.2975C142.011 10.9613 141.683 10.7925 141.238 10.7925C140.833 10.7925 140.502 10.9566 140.25 11.286C140.044 11.5483 139.922 11.8614 139.881 12.2277H142.467Z" fill="white"/>
<path d="M63.5792 36.4045H60.8877L59.4133 31.8874H54.2886L52.8841 36.4045H50.2637L55.341 21.0264H58.477L63.5792 36.4045ZM58.9689 29.9923L57.6355 25.9768C57.4945 25.5665 57.2302 24.6005 56.8403 23.0798H56.7929C56.6376 23.7338 56.3875 24.6999 56.0438 25.9768L54.7342 29.9923H58.9689V29.9923Z" fill="white"/>
<path d="M76.6364 30.724C76.6364 32.6099 76.1137 34.1006 75.0684 35.1949C74.1321 36.169 72.9694 36.6555 71.5816 36.6555C70.0835 36.6555 69.0073 36.1309 68.3519 35.0816H68.3045V40.923H65.7777V28.9664C65.7777 27.7808 65.7457 26.564 65.6841 25.316H67.9063L68.0473 27.0736H68.0947C68.9374 25.7494 70.2162 25.0884 71.9324 25.0884C73.274 25.0884 74.394 25.6049 75.29 26.6391C76.1884 27.6745 76.6364 29.0358 76.6364 30.724ZM74.0622 30.8142C74.0622 29.7349 73.8133 28.8451 73.3131 28.1448C72.7667 27.4145 72.0331 27.0494 71.1134 27.0494C70.49 27.0494 69.9235 27.2527 69.4174 27.6537C68.9102 28.0582 68.5783 28.5862 68.423 29.2403C68.3448 29.5454 68.3057 29.795 68.3057 29.9914V31.8403C68.3057 32.6469 68.5593 33.3275 69.0666 33.8833C69.5739 34.4391 70.2328 34.7165 71.0435 34.7165C71.9952 34.7165 72.7359 34.3582 73.2657 33.6441C73.7967 32.9288 74.0622 31.9859 74.0622 30.8142Z" fill="white"/>
<path d="M89.7172 30.724C89.7172 32.6099 89.1946 34.1006 88.148 35.1949C87.2129 36.169 86.0503 36.6555 84.6624 36.6555C83.1643 36.6555 82.0882 36.1309 81.434 35.0816H81.3866V40.923H78.8597V28.9664C78.8597 27.7808 78.8277 26.564 78.7661 25.316H80.9883L81.1294 27.0736H81.1768C82.0183 25.7494 83.2971 25.0884 85.0144 25.0884C86.3549 25.0884 87.4749 25.6049 88.3732 26.6391C89.268 27.6745 89.7172 29.0358 89.7172 30.724ZM87.143 30.8142C87.143 29.7349 86.8929 28.8451 86.3928 28.1448C85.8464 27.4145 85.1152 27.0494 84.1943 27.0494C83.5697 27.0494 83.0043 27.2527 82.4971 27.6537C81.9898 28.0582 81.6591 28.5862 81.5039 29.2403C81.4269 29.5454 81.3866 29.795 81.3866 29.9914V31.8403C81.3866 32.6469 81.6402 33.3275 82.1451 33.8833C82.6523 34.438 83.3113 34.7165 84.1243 34.7165C85.076 34.7165 85.8168 34.3582 86.3466 33.6441C86.8775 32.9288 87.143 31.9859 87.143 30.8142Z" fill="white"/>
<path d="M104.343 32.0922C104.343 33.4003 103.877 34.4646 102.942 35.2862C101.914 36.184 100.484 36.6324 98.6453 36.6324C96.9481 36.6324 95.5875 36.3134 94.5576 35.6744L95.1431 33.621C96.2524 34.275 97.4696 34.6032 98.7958 34.6032C99.7475 34.6032 100.488 34.3929 101.02 33.9746C101.55 33.5563 101.815 32.9947 101.815 32.2944C101.815 31.6704 101.596 31.1446 101.159 30.7182C100.724 30.2918 99.9976 29.8955 98.9831 29.5292C96.2216 28.525 94.8421 27.054 94.8421 25.1196C94.8421 23.8554 95.3256 22.8189 96.2939 22.0123C97.2587 21.2046 98.5458 20.8013 100.155 20.8013C101.591 20.8013 102.783 21.0451 103.735 21.5316L103.103 23.5399C102.214 23.0685 101.209 22.8327 100.084 22.8327C99.1952 22.8327 98.5007 23.0465 98.003 23.4718C97.5822 23.8519 97.3712 24.3153 97.3712 24.8642C97.3712 25.472 97.6118 25.9747 98.0954 26.3699C98.5161 26.735 99.2806 27.1302 100.39 27.5566C101.747 28.0894 102.744 28.7122 103.385 29.4263C104.024 30.1382 104.343 31.0291 104.343 32.0922Z" fill="white"/>
<path d="M112.697 27.165H109.912V32.5488C109.912 33.9181 110.402 34.6022 111.386 34.6022C111.838 34.6022 112.212 34.5641 112.509 34.4878L112.578 36.3586C112.081 36.5401 111.425 36.6314 110.613 36.6314C109.615 36.6314 108.836 36.3344 108.273 35.7416C107.712 35.1476 107.43 34.1515 107.43 32.7522V27.1627H105.771V25.3138H107.43V23.2835L109.912 22.5532V25.3138H112.697V27.165Z" fill="white"/>
<path d="M125.263 30.7689C125.263 32.4734 124.763 33.8727 123.765 34.967C122.719 36.0937 121.33 36.6553 119.598 36.6553C117.929 36.6553 116.601 36.1157 115.61 35.0364C114.619 33.9571 114.124 32.5947 114.124 30.9526C114.124 29.2343 114.633 27.8269 115.656 26.7326C116.677 25.6371 118.054 25.0894 119.785 25.0894C121.454 25.0894 122.797 25.629 123.81 26.7094C124.78 27.7575 125.263 29.1107 125.263 30.7689ZM122.642 30.8486C122.642 29.826 122.418 28.9489 121.964 28.2174C121.434 27.3323 120.677 26.8909 119.695 26.8909C118.68 26.8909 117.908 27.3334 117.378 28.2174C116.924 28.9501 116.7 29.841 116.7 30.8949C116.7 31.9175 116.924 32.7946 117.378 33.5249C117.925 34.4101 118.688 34.8515 119.673 34.8515C120.638 34.8515 121.395 34.4008 121.941 33.5018C122.407 32.7565 122.642 31.8702 122.642 30.8486Z" fill="white"/>
<path d="M133.477 27.4827C133.227 27.4376 132.96 27.4145 132.68 27.4145C131.791 27.4145 131.104 27.7415 130.62 28.3967C130.2 28.9745 129.989 29.7048 129.989 30.5865V36.4047H127.463L127.487 28.8081C127.487 27.5301 127.455 26.3664 127.392 25.3172H129.593L129.685 27.4388H129.755C130.022 26.7096 130.443 26.1226 131.019 25.6823C131.581 25.286 132.189 25.0884 132.845 25.0884C133.078 25.0884 133.289 25.1046 133.477 25.1334V27.4827Z" fill="white"/>
<path d="M144.777 30.3356C144.777 30.777 144.748 31.1491 144.685 31.453H137.105C137.134 32.5484 137.5 33.3862 138.204 33.964C138.843 34.4805 139.669 34.7394 140.684 34.7394C141.806 34.7394 142.83 34.5649 143.751 34.2148L144.147 35.925C143.071 36.3826 141.8 36.6102 140.334 36.6102C138.571 36.6102 137.186 36.1041 136.179 35.093C135.174 34.0819 134.67 32.7241 134.67 31.0208C134.67 29.3487 135.138 27.9563 136.076 26.8458C137.057 25.6602 138.383 25.0674 140.052 25.0674C141.691 25.0674 142.932 25.6602 143.775 26.8458C144.442 27.7876 144.777 28.9524 144.777 30.3356ZM142.368 29.6965C142.385 28.9662 142.22 28.3353 141.877 27.8026C141.44 27.1173 140.768 26.7753 139.864 26.7753C139.038 26.7753 138.366 27.1092 137.852 27.7795C137.432 28.3122 137.182 28.9512 137.105 29.6954H142.368V29.6965Z" fill="white"/>
</svg>

<svg xmlns="http://www.w3.org/2000/svg" width="160" height="47" fill="none" viewBox="0 0 160 47"><path fill="#000" d="M159.111 40.892c0 2.463-2.037 4.458-4.556 4.458H5.451C2.933 45.35.89 43.355.89 40.891V5.337C.889 2.874 2.933.872 5.45.872h149.103c2.52 0 4.556 2.002 4.556 4.464z"/><path fill="#fff" d="M35.707 22.862c-.034-3.725 3.128-5.537 3.273-5.621-1.791-2.546-4.567-2.894-5.542-2.921-2.332-.24-4.593 1.36-5.78 1.36-1.212 0-3.04-1.337-5.011-1.298-2.537.038-4.91 1.47-6.21 3.693-2.686 4.533-.683 11.195 1.89 14.86 1.287 1.794 2.79 3.798 4.76 3.727 1.925-.077 2.645-1.197 4.969-1.197 2.303 0 2.978 1.197 4.986 1.152 2.067-.032 3.368-1.802 4.61-3.613 1.488-2.057 2.085-4.083 2.109-4.187-.049-.016-4.015-1.492-4.054-5.956M31.915 11.91c1.036-1.264 1.744-2.982 1.548-4.726-1.5.065-3.375 1.011-4.454 2.246-.956 1.089-1.809 2.873-1.588 4.551 1.684.123 3.413-.828 4.494-2.072m26.218-.343q0 2.04-1.254 3.071-1.16.951-3.298.952-1.058 0-1.817-.09V8.068q.988-.157 2.14-.157 2.035 0 3.07.863 1.159.975 1.16 2.792m-1.31.033q0-1.323-.718-2.029t-2.098-.706q-.588-.001-1 .079v5.65q.229.033.838.033 1.426 0 2.201-.774.777-.773.778-2.253m8.253 1.155q0 1.256-.737 2.063-.77.83-2.046.83-1.23 0-1.96-.797-.73-.796-.73-2.006 0-1.267.753-2.073t2.03-.807q1.23 0 1.977.795.712.774.713 1.995m-1.289.04q0-.755-.333-1.294-.39-.651-1.114-.652-.748 0-1.139.652-.334.539-.333 1.315 0 .754.333 1.293.404.652 1.127.652.712 0 1.114-.663.345-.55.345-1.304m10.599-2.718-1.748 5.448h-1.138l-.724-2.366a17 17 0 0 1-.449-1.76h-.022a13 13 0 0 1-.45 1.76l-.769 2.366h-1.15l-1.645-5.448h1.277l.632 2.59q.229.919.379 1.748h.022q.139-.683.461-1.737l.793-2.6h1.013l.76 2.545q.274.93.447 1.793h.035q.126-.84.379-1.793l.678-2.545h1.22m6.438 5.447h-1.242v-3.12q.001-1.443-1.126-1.443-.551 0-.897.397a1.4 1.4 0 0 0-.345.934v3.23h-1.242v-3.89q0-.716-.045-1.558h1.092l.058.852h.034q.218-.397.644-.658a2.14 2.14 0 0 1 1.126-.306q.782 0 1.3.493.643.606.643 1.805zm3.425-.001h-1.24V7.576h1.24zm7.313-2.768q0 1.256-.736 2.063-.772.83-2.047.83-1.231 0-1.96-.797-.729-.796-.729-2.006 0-1.267.753-2.073t2.028-.807q1.23 0 1.979.795.712.774.712 1.995m-1.29.04q0-.755-.333-1.294-.39-.651-1.112-.652-.75 0-1.14.652-.333.539-.332 1.315 0 .754.333 1.293.402.652 1.127.652.711 0 1.113-.663.345-.55.344-1.304m7.301 2.73h-1.115l-.092-.628h-.035q-.572.75-1.632.751-.792 0-1.275-.493a1.53 1.53 0 0 1-.437-1.11q-.001-.997.857-1.524.856-.527 2.41-.515v-.102q0-1.076-1.161-1.076-.827.001-1.457.404l-.252-.795q.78-.47 1.916-.47 2.192 0 2.193 2.253v2.006q0 .816.08 1.299m-1.29-1.872v-.84q-2.054-.035-2.054 1.097-.001.427.238.64.241.212.607.212.41 0 .76-.252a1.03 1.03 0 0 0 .45-.857m8.347 1.871h-1.102l-.058-.874h-.035q-.529.998-1.794.998a2.12 2.12 0 0 1-1.678-.773q-.667-.773-.666-2.006-.001-1.323.724-2.141a2.25 2.25 0 0 1 1.724-.763q1.127 0 1.574.74h.024V7.576h1.243v6.479q0 .796.044 1.467m-1.287-2.297v-.908q0-.236-.034-.381a1.37 1.37 0 0 0-.45-.734 1.24 1.24 0 0 0-.83-.297q-.694 0-1.093.538-.397.54-.398 1.379 0 .807.381 1.312a1.29 1.29 0 0 0 1.086.537q.611 0 .981-.449.358-.414.357-.997m11.91-.471q0 1.256-.736 2.063-.77.83-2.047.83-1.228 0-1.96-.797-.729-.796-.729-2.006 0-1.267.753-2.073.752-.806 2.03-.807 1.23 0 1.977.795.712.774.712 1.995m-1.287.04q0-.755-.333-1.294-.392-.651-1.115-.652-.747 0-1.139.652-.334.539-.333 1.315 0 .754.333 1.293.402.652 1.127.652.712 0 1.115-.663.344-.55.345-1.304m7.966 2.73h-1.241v-3.12q0-1.443-1.127-1.443-.553 0-.896.397a1.38 1.38 0 0 0-.345.934v3.23h-1.244v-3.89q0-.716-.043-1.558h1.09l.058.852h.034a1.8 1.8 0 0 1 .644-.658 2.14 2.14 0 0 1 1.127-.306q.78 0 1.299.493.645.606.644 1.805zm8.359-4.54h-1.368v2.646q.001 1.008.724 1.008.335 0 .553-.056l.032.918q-.368.135-.964.136-.736 0-1.149-.437-.415-.437-.415-1.469v-2.746h-.816v-.908h.816v-.998l1.218-.358v1.355h1.367v.909zm6.575 4.539h-1.243v-3.096q0-1.466-1.125-1.466-.863 0-1.185.85-.057.178-.058.435v3.276h-1.241V7.576h1.241v3.283h.023q.588-.896 1.679-.896.771 0 1.277.494.632.616.632 1.826zm6.783-2.982q-.001.326-.047.55h-3.725q.024.807.54 1.233.472.381 1.219.381.827 0 1.507-.258l.194.842q-.793.336-1.875.336-1.299 0-2.04-.745-.741-.746-.74-2-.001-1.233.689-2.052.722-.873 1.954-.873 1.206 0 1.826.873.499.694.498 1.714m-1.186-.312q.014-.54-.24-.93-.323-.505-.989-.505-.609 0-.988.493a1.8 1.8 0 0 0-.369.942zM63.58 36.405h-2.692l-1.475-4.518H54.29l-1.405 4.517h-2.62l5.077-15.378h3.136zm-4.611-6.413-1.334-4.015q-.21-.615-.795-2.897h-.047q-.233.981-.75 2.897l-1.309 4.015zm17.667.732q0 2.83-1.568 4.47-1.405 1.462-3.486 1.462-2.247 0-3.23-1.574h-.047v5.841h-2.527V28.966q0-1.778-.094-3.65h2.222l.141 1.758h.048q1.263-1.987 3.837-1.986 2.013 0 3.358 1.551 1.346 1.553 1.346 4.085m-2.574.09q0-1.62-.749-2.67-.82-1.095-2.2-1.095-.936.002-1.696.605-.761.605-.994 1.586a3.2 3.2 0 0 0-.117.751v1.85q0 1.208.76 2.042.762.834 1.977.834 1.428-.001 2.223-1.073.796-1.072.796-2.83m15.655-.09q0 2.83-1.569 4.47-1.403 1.462-3.486 1.462-2.247 0-3.228-1.574h-.047v5.841H78.86V28.966q0-1.778-.094-3.65h2.222l.141 1.758h.048q1.261-1.987 3.837-1.986 2.01 0 3.36 1.551 1.342 1.553 1.343 4.085m-2.574.09q0-1.62-.75-2.67-.819-1.095-2.199-1.095-.936.002-1.697.605a2.8 2.8 0 0 0-.993 1.586 3.2 3.2 0 0 0-.117.751v1.85q0 1.208.758 2.042.76.833 1.98.834 1.427-.001 2.222-1.073.796-1.072.796-2.83m17.2 1.278q0 1.962-1.401 3.194-1.54 1.346-4.297 1.346-2.544 0-4.087-.958l.585-2.053a7.06 7.06 0 0 0 3.653.982q1.426 0 2.224-.628.795-.63.795-1.68 0-.937-.656-1.577-.653-.64-2.176-1.189-4.14-1.507-4.14-4.41 0-1.896 1.45-3.107 1.449-1.21 3.862-1.21 2.153 0 3.58.73l-.632 2.008q-1.333-.707-3.019-.707-1.334 0-2.081.639-.631.57-.632 1.392-.001.912.724 1.506.632.547 2.295 1.187 2.034.798 2.995 1.87.958 1.069.958 2.665m8.354-4.927h-2.785v5.384q-.001 2.054 1.474 2.053.678 0 1.123-.114l.069 1.87q-.746.273-1.965.273-1.496 0-2.34-.89-.842-.89-.843-2.989v-5.59h-1.659v-1.848h1.659v-2.03l2.482-.73v2.76h2.785zm12.566 3.604q0 2.557-1.498 4.198-1.569 1.69-4.167 1.688-2.502 0-3.988-1.619-1.486-1.62-1.486-4.083-.001-2.579 1.532-4.22 1.532-1.644 4.129-1.644 2.504 0 4.025 1.62 1.454 1.573 1.453 4.06m-2.621.08q.001-1.534-.678-2.632-.796-1.327-2.269-1.326-1.522 0-2.317 1.326-.68 1.098-.678 2.678-.001 1.535.678 2.63.819 1.327 2.295 1.327 1.448 0 2.268-1.35c.466-.745.701-1.632.701-2.653m10.835-3.366a4.5 4.5 0 0 0-.797-.069q-1.334 0-2.06.983-.63.867-.631 2.19v5.818h-2.526l.024-7.597q0-1.918-.095-3.49h2.201l.092 2.12h.07q.4-1.093 1.264-1.756a3.1 3.1 0 0 1 1.826-.594q.35.001.632.045zm11.3 2.853q.001.661-.092 1.117h-7.58q.043 1.643 1.099 2.511.958.775 2.48.775 1.684 0 3.067-.524l.396 1.71q-1.614.686-3.813.685-2.644 0-4.155-1.517-1.508-1.517-1.509-4.072 0-2.509 1.406-4.175 1.472-1.779 3.976-1.779 2.458 0 3.723 1.779 1.001 1.414 1.002 3.49m-2.409-.64q.024-1.094-.491-1.893-.656-1.029-2.013-1.028-1.24 0-2.012 1.005-.63.798-.747 1.915z"/></svg>
